X: 4941
T: Breakout
R: jig
M: 6/8
K: Dminor
|:D2A AGF|E2c c3|DAA AGF|E/F/GE EDC|
D2A AGF|E2c c2d/e/|fed cAe|1 d2d d3:|2 d2d d2d/e/||
|:f2f fgf|e^cA ecA|d2d dcB|ABG A3|
[1 Add def|Aee efg|afd ^cAe|d2d d2d/e/:|
[2 FGA ABc|^cde efg|afd ge^c|d2d d3||

